src/images/svg-to-icon-sprite/copy-icon.svg

<svg width="20" height="20" viewBox="0 0 20 20" fill="none" xmlns="http://www.w3.org/2000/svg">
<path fill-rule="evenodd" clip-rule="evenodd" d="M10.8333 8.33317C11.2936 8.33317 11.6667 8.70627 11.6667 9.1665V16.6665C11.6667 17.1267 11.2936 17.4998 10.8333 17.4998H3.33334C2.87311 17.4998 2.50001 17.1267 2.50001 16.6665V9.1665C2.50001 8.70627 2.87311 8.33317 3.33334 8.33317H10.8333ZM13.3333 9.1665C13.3333 7.78579 12.2141 6.6665 10.8333 6.6665H3.33334C1.95263 6.6665 0.833344 7.78579 0.833344 9.1665V16.6665C0.833344 18.0472 1.95263 19.1665 3.33334 19.1665H10.8333C12.2141 19.1665 13.3333 18.0472 13.3333 16.6665V9.1665Z" fill="#BF5002"/>
<path fill-rule="evenodd" clip-rule="evenodd" d="M16.6667 2.50016C16.8877 2.50016 17.0996 2.58796 17.2559 2.74424C17.4122 2.90052 17.5 3.11248 17.5 3.3335V10.8335C17.5 11.0545 17.4122 11.2665 17.2559 11.4228C17.0996 11.579 16.8877 11.6668 16.6667 11.6668H15.8333C15.3731 11.6668 15 12.0399 15 12.5002C15 12.9604 15.3731 13.3335 15.8333 13.3335H16.6667C17.3297 13.3335 17.9656 13.0701 18.4344 12.6013C18.9033 12.1324 19.1667 11.4965 19.1667 10.8335V3.3335C19.1667 2.67046 18.9033 2.03457 18.4344 1.56573C17.9656 1.09689 17.3297 0.833496 16.6667 0.833496H9.16666C8.50361 0.833496 7.86773 1.09689 7.39889 1.56573C6.93005 2.03457 6.66666 2.67045 6.66666 3.3335V4.16683C6.66666 4.62707 7.03975 5.00016 7.49999 5.00016C7.96023 5.00016 8.33332 4.62707 8.33332 4.16683V3.3335C8.33332 3.11248 8.42112 2.90052 8.5774 2.74424C8.73368 2.58796 8.94564 2.50016 9.16666 2.50016H16.6667Z" fill="#BF5002"/>
</svg>

<svg width="20" height="20" fill="none" xmlns="http://www.w3.org/2000/svg"><path fill-rule="evenodd" clip-rule="evenodd" d="M10.833 8.333c.46 0 .834.373.834.833v7.5c0 .46-.373.834-.834.834h-7.5a.833.833 0 0 1-.833-.834v-7.5c0-.46.373-.833.833-.833h7.5Zm2.5.833a2.5 2.5 0 0 0-2.5-2.5h-7.5a2.5 2.5 0 0 0-2.5 2.5v7.5a2.5 2.5 0 0 0 2.5 2.5h7.5a2.5 2.5 0 0 0 2.5-2.5v-7.5Z" fill="#BF5002"/><path fill-rule="evenodd" clip-rule="evenodd" d="M16.667 2.5a.833.833 0 0 1 .833.833v7.5a.833.833 0 0 1-.833.834h-.834a.833.833 0 0 0 0 1.667h.834a2.5 2.5 0 0 0 2.5-2.5v-7.5a2.5 2.5 0 0 0-2.5-2.5h-7.5a2.5 2.5 0 0 0-2.5 2.5v.833a.833.833 0 1 0 1.666 0v-.833a.833.833 0 0 1 .834-.834h7.5Z" fill="#BF5002"/></svg>
